X: 11
T:Orange Grove. JB.11
M:2/4
L:1/8
Q:250
S:James Biggins MS, Leeds, 1779.
R:Misc.
O:England
A:Yorkshire
Z:vmp.Nick Barber & Chris Partington
K:A
cA AB/c/|BGFE|cAAB|cea2|cA AB/c/|BGFE|ceBd|cAA2:|!
|:Acea|geef|ecce|dBB2|cAAB|ceac|BABc|A2A2:|!
|:cAfd|ecdB|cAdB|GB"tr"B2|cA fd|ecdB|c/d/e f/g/a|cAA2:|]
